evrofasad/img/icons/calc.svg

<svg width="35" height="50" viewBox="0 0 35 50" fill="none" xmlns="http://www.w3.org/2000/svg">
<path d="M5 0H30C31.3261 0 32.5979 0.526784 33.5355 1.46447C34.4732 2.40215 35 3.67392 35 5V45C35 46.3261 34.4732 47.5979 33.5355 48.5355C32.5979 49.4732 31.3261 50 30 50H5C3.67392 50 2.40215 49.4732 1.46447 48.5355C0.526784 47.5979 0 46.3261 0 45V5C0 3.67392 0.526784 2.40215 1.46447 1.46447C2.40215 0.526784 3.67392 0 5 0ZM5 5V15H30V5H5ZM5 20V25H10V20H5ZM15 20V25H20V20H15ZM25 20V25H30V20H25ZM5 30V35H10V30H5ZM15 30V35H20V30H15ZM25 30V35H30V30H25ZM5 40V45H10V40H5ZM15 40V45H20V40H15ZM25 40V45H30V40H25Z" fill="#2DB1E6"/>
</svg>

<svg width="35" height="50" fill="none" xmlns="http://www.w3.org/2000/svg"><path d="M5 0h25a5 5 0 015 5v40a5 5 0 01-5 5H5a5 5 0 01-5-5V5a5 5 0 015-5zm0 5v10h25V5H5zm0 15v5h5v-5H5zm10 0v5h5v-5h-5zm10 0v5h5v-5h-5zM5 30v5h5v-5H5zm10 0v5h5v-5h-5zm10 0v5h5v-5h-5zM5 40v5h5v-5H5zm10 0v5h5v-5h-5zm10 0v5h5v-5h-5z" fill="#2DB1E6"/></svg>
